!!!OTL: J&auml;gerlied (2-23), S. 105
!!!id: K1123
**kern
*clefG2
*k[b-e-]
*B-:
{16f
16f
=1
8f
8f
8f
8f
8g
8a
=2
4b-
8g
4g}
=3
{8g
=4
8g
8g
8g
8b-
8a
8g
=5
4f
8b-
4d}
=6
{8f
=7
4f
16e-
16e-
4c
16b-
16b-
=8
4b-}
=9
{8dd
8dd
8b-
8b-
=10
4cc
16cc
16cc
8a
8g
8a
=11
2b-}
8r
==
*-
!!!minrhy: 16
!!!meters: 6/8 ]  ZZ[4
!!!cut: J&auml;gerlied (2-23), S. 105
!!!reg: Luxemburg
!!!trd: KINTZELE, Guillaume: An der Ucht, Bd. 2, Luxemburg 1927
!!!rhy1: XX  X_X_X_X_X_X_  X__X_X__
!!!rhy2: X_  X_X_X_X_X_X_  X__X_X__
!!!key: K1123  16 Bb 6/8 ]  ZZ[4
!!!mod: HEPTATONIK IONISCH]  AMBITUS[9
!!!kad: -6-311
!!!akz: -5-51-6_-61-5-3_-5-21_32-711_
!!!fot: 'a__b__c__d__
!!!for: 'a__av_b__c__
!!!fok: '^a_^d_Va_Vd_
!! PHRAS[AUFTAKTIG]
!!!fkt: Scherz-, Spottlied, Jagd, Liebe
!! KINTZELE
!! PR[40] 2K[2] 2G[12] 3K[5] 3G[2] 4A[4] 4Ü[0] 5A[2] 6K[0] 6G[0]
!! 7K[0] 7G[0] 8A[0] MEHR[0] SI[26] ABS[57] SR[14] SP[12]
!! ST[12] 2k[7] 2g[23] 3k[4] 3g[0] 4d[0] 4ü[0] 5d[0] 6k[0] 6g[0]
!! 7k[0] 7g[0] 8d[0] mehr[0] si[33] dm[-7] sr[30] sp[4]
!! 1F[83] 2F[13] 3F[0] 4F[0] LF[0] 2P[3] 3P[0] 4P[0] TRI[0] DF[3] AB[60]
!! TF[0] U3K[0] U3[0] U4[0] U4Ü[0] U5[2] U6K[0] U6[0] U7K[0] U7[0]
!! N1[7] N2K[0] N2[12] N3K[0] N3[12] N4[12] N4Ü[0] N5[38] N6K[0] N6[17]
!!!n7k: 0] N7[0] O1[0] O2K[0] O2[0] O3K[0] O3[0] HÖ[0
!!!RNB: symbol: &auml;      = a umlaut  (UTF-8: Å„)
